X:2
T: Union Reel [2]
S: Joe Derrane
Q: 350
R: reel
M: 4/4
L: 1/8
K: A
P:"A"  Part
eA (3cBA eA (3cBA | eA (3cBA Bcdf | eA (3cBA eA (3cBA |
BdcA BAFA | eA (3cBA eA (3cBA | (3efe (3cBA Bcdf | (3efe ce dcBA |
|1 FABc dcdf  :|2 FABc d2 z2 ||
P: B
K: D
P:"B" Part
dAFA dfec | dAFG A^ABc | dAFA dfec | dcBA FAdf |
dAFA dfec | dAFG (3AdA Bc | dAFA dfec | dcBA FAdf ||
P: "A" Part
eA (3cBA eA (3cBA | eA (3cBA Bcdf | eA (3cBA eA (3cBA |
BdcA BAFA | eA (3cBA eA (3cBA | (3efe (3cBA Bcdf | (3efe ce dcBA |
|1 FABc dcdf  :|2 FABc d2 z2 ||
P:"C" Part
(3GBG BG (3FAF AF | (3GBG (3Bcd g2 z2 | (3ege ce dBGB | (3AdA FA DAFA |
(3GBG BG (3FAF AF | (3GBG (3Bcd gdBd | (3ege ce dBAB |1 (3AdA FA G3 D :|
|2 (3AdA FA GAcf ||
P:"A" Part
eA (3cBA eA (3cBA | eA (3cBA Bcdf | eA (3cBA eA (3cBA |
BdcA BAFA | eA (3cBA eA (3cBA | (3efe (3cBA Bcdf | (3efe ce dcBA |
|1 FABc dcdf  :|2 FABc d2 z2  :|3"last time"(3efe ce afec | (3BcB Bc A2 z2 ||

